X: 22
T:Reconciliation, The
M:4/4
L:1/8
R:Reel
K:A
E|"A"A2 c/B/A eAfA|"A"eAfA "E7"ecBc|"A"A2 c/B/A eAfA|"Bm"ecBc"E7" AFEF|!
"A"A2 c/B/A eAfA|"A"eAfA "E7"ecBc|"D"ABAF "A"Ecdf|"E7"ecBc "A"A2:|!
|:cB|"A"ABce a2 af|"A"efed "E7"cdcB|"A"ABce a2 ag|"B7"fbba "E7"gbeg|!
"A"agae "D"faec|"Bm"dBcA "E7"BAFG|"A"ABAF "D"Ecdf|"E7"ecBc "A"A2||
